meat/img/oche.svg

<svg width="45" height="45" viewBox="0 0 45 45" fill="none" xmlns="http://www.w3.org/2000/svg">
<path d="M40 0.5H5C2.51472 0.5 0.5 2.51472 0.5 5V40C0.5 42.4853 2.51472 44.5 5 44.5H40C42.4853 44.5 44.5 42.4853 44.5 40V5C44.5 2.51472 42.4853 0.5 40 0.5Z" stroke="white"/>
<path d="M40 0.5H5C2.51472 0.5 0.5 2.51472 0.5 5V40C0.5 42.4853 2.51472 44.5 5 44.5H40C42.4853 44.5 44.5 42.4853 44.5 40V5C44.5 2.51472 42.4853 0.5 40 0.5Z" stroke="url(#paint0_linear)" stroke-opacity="0.1"/>
<path d="M18.1814 13.8957C20.3472 12.3905 23.0663 11.7282 25.6679 12.1026C28.4722 12.4789 31.0985 14.0359 32.7924 16.3301C34.6304 18.7817 35.3978 22.0397 34.801 25.0654C34.3159 27.7398 32.8152 30.2183 30.6513 31.8329C28.603 33.3976 25.9881 34.1828 23.4301 33.9639C19.9872 33.7547 16.766 31.687 15 28.7016C18.0601 26.8873 21.1203 25.0673 24.1975 23.2838C22.2401 20.1256 20.1824 17.027 18.1814 13.8957Z" fill="#ED3F5E"/>
<path d="M11.4876 19.1169L11.4876 19.1169L11.4896 19.1104C12.0603 17.2958 13.1762 15.6721 14.6263 14.4467C15.3146 15.5046 16.0029 16.5786 16.6933 17.6561C17.6499 19.1488 18.6106 20.648 19.5813 22.1197C17.0318 23.6102 14.4812 25.1025 11.936 26.6042C10.8734 24.2895 10.7036 21.5516 11.4876 19.1169Z" stroke="#F997A9" stroke-width="2"/>
<path d="M28.4318 26.6001V35.0001H26.0558V28.4361H24.4958V26.6001H28.4318Z" fill="white"/>
<path d="M32.8391 29.6601C34.0151 29.6601 34.8831 29.9001 35.4431 30.3801C36.0111 30.8601 36.2951 31.5001 36.2951 32.3001C36.2951 32.8201 36.1591 33.3001 35.8871 33.7401C35.6231 34.1721 35.2151 34.5201 34.6631 34.7841C34.1191 35.0401 33.4431 35.1681 32.6351 35.1681C32.0431 35.1681 31.4551 35.0961 30.8711 34.9521C30.2951 34.8081 29.7991 34.6041 29.3831 34.3401L30.2351 32.5521C30.5711 32.7761 30.9391 32.9481 31.3391 33.0681C31.7471 33.1881 32.1551 33.2481 32.5631 33.2481C32.9711 33.2481 33.2951 33.1721 33.5351 33.0201C33.7831 32.8601 33.9071 32.6401 33.9071 32.3601C33.9071 32.0801 33.7871 31.8681 33.5471 31.7241C33.3071 31.5801 32.8831 31.5081 32.2751 31.5081H29.9951L30.4151 26.6001H35.7671V28.4361H32.3831L32.2751 29.6601H32.8391Z" fill="white"/>
<defs>
<linearGradient id="paint0_linear" x1="22.5" y1="44.5" x2="22.5" y2="0.500001" gradientUnits="userSpaceOnUse">
<stop stop-color="#015423"/>
<stop offset="1" stop-color="#6ED26C"/>
</linearGradient>
</defs>
</svg>

<svg width="45" height="45" fill="none" xmlns="http://www.w3.org/2000/svg"><path d="M40 .5H5A4.5 4.5 0 0 0 .5 5v35A4.5 4.5 0 0 0 5 44.5h35a4.5 4.5 0 0 0 4.5-4.5V5A4.5 4.5 0 0 0 40 .5z" stroke="#fff"/><path d="M40 .5H5A4.5 4.5 0 0 0 .5 5v35A4.5 4.5 0 0 0 5 44.5h35a4.5 4.5 0 0 0 4.5-4.5V5A4.5 4.5 0 0 0 40 .5z" stroke="url(#paint0_linear)" stroke-opacity=".1"/><path d="M18.181 13.896c2.166-1.506 4.885-2.168 7.487-1.793 2.804.376 5.43 1.933 7.124 4.227 1.838 2.452 2.606 5.71 2.009 8.735-.485 2.675-1.986 5.153-4.15 6.768-2.048 1.565-4.663 2.35-7.22 2.13-3.444-.208-6.665-2.276-8.431-5.261 3.06-1.815 6.12-3.635 9.198-5.418-1.958-3.158-4.016-6.257-6.017-9.388z" fill="#ED3F5E"/><path d="M11.488 19.117h0l.002-.007c.57-1.814 1.686-3.438 3.136-4.663a549.049 549.049 0 0 1 2.067 3.21c.957 1.492 1.918 2.991 2.888 4.463-2.55 1.49-5.1 2.982-7.645 4.484a10.481 10.481 0 0 1-.448-7.487z" stroke="#F997A9" stroke-width="2"/><path d="M28.432 26.6V35h-2.376v-6.564h-1.56V26.6h3.936zM32.84 29.66c1.175 0 2.043.24 2.603.72.568.48.852 1.12.852 1.92 0 .52-.136 1-.408 1.44-.264.432-.672.78-1.224 1.044-.544.256-1.22.384-2.028.384-.592 0-1.18-.072-1.764-.216a5.042 5.042 0 0 1-1.488-.612l.852-1.788c.336.224.704.396 1.104.516.408.12.816.18 1.224.18.408 0 .732-.076.972-.228.248-.16.372-.38.372-.66s-.12-.492-.36-.636c-.24-.144-.664-.216-1.272-.216h-2.28l.42-4.908h5.352v1.836h-3.384l-.108 1.224h.564z" fill="#fff"/><defs><linearGradient id="paint0_linear" x1="22.5" y1="44.5" x2="22.5" y2=".5" gradientUnits="userSpaceOnUse"><stop stop-color="#015423"/><stop offset="1" stop-color="#6ED26C"/></linearGradient></defs></svg>
